X:1
T:I’m Going There
T:I’m Going There
T:Charles Austin Miles
T:Charles Austin Miles, 1910
T:Public Domain Courtesy of the Cyber Hymnal™
C:Charles Austin Miles
Z:Public Domain
Z:Courtesy of the Cyber Hymnal™
%%score ( 1 2 ) ( 3 4 )
L:1/8
Q:1/4=113
M:4/4
K:F
V:1 treble 
V:2 treble 
V:3 bass 
V:4 bass 
V:1
 C2 | [CF]2 [CF]2 [EG]2 [EG]2 | [FA]2 [Fc]2 [Fd][Fc][FA][FG] | [CF]2 [CF]2 [FA]2 F2 | [EG]6 C2 | %5
w: 1.~There|is a land of|wond- rous beau- ty, Where the|“liv- ing wa- ters”|flow, The|
w: 2.~No|tears are there, no|blight- ing sor- row, From the|cru- el hand of|death; No|
w: 3.~There|ran- somed souls will|give me wel- come With a|“Hal- le- lu- jah”|shout! And|
w: 4.~I’ve|loved ones there who|passed be- fore me, They’ll re-|joice to see me|come, But|
 [CF]2 [CF]2 [EG]2 [EG]2 | [FA]2 [Fc]2 [Fd][Fc][FA][FA] | [EG] [Ec]3 [Gc]2 [F=B]2 | [Ec]6 || %9
w: Word of God to|all has said it, And it|sure- ly must be|so.|
w: flow- ers fade, no|sum- mers per- ish By the|win- ter’s chill- ing|breath.|
w: I shall en- ter|in that ci- ty, Nev- er,|nev- er to go|out.|
w: best of all, I’ll|see my Sav- ior, Who will|bid me “Wel- come|home.”|
"^Refrain" [EA][EB] | [EA][EG] G4 (GA) | F6 (FG) | E6 [Bd]2 | c6 CC | [CF] [CF]3 [EG]3 [EG] | %15
w: ||||||
w: And I’m|go- ing there some *|day, Some *|day, some|day, I am|go- ing there to|
w: ||||||
w: ||||||
 ([FA][Ac] c4) [GB]2 | ([FA]4 [EG]4) | [CF]6 |] %18
w: |||
w: stay * * With|Je- *|sus.|
w: |||
w: |||
V:2
 C2 | x8 | x8 | x6 F2 | x6 C2 | x8 | x8 | x8 | x6 || x2 | x2 (EE E2) E2 | (C2 D2 C2) C2 | %12
 (C2 CC C2) x2 | (A2 G2 F2) CC | x8 | x2 (A2 A2) x2 | x8 | x6 |] %18
V:3
 [F,A,]2 | [F,A,]2 [F,A,]2 [C,C]2 [C,C]2 | [F,C]2 [F,A,]2 [F,B,][F,A,][F,C][F,B,] | %3
w: ~|~ ~ ~ ~|~ ~ ~ ~ ~ ~|
 [F,A,]2 [F,A,]2 [F,C]2 [F,A,]2 | [C,C]6 [C,B,]2 | [F,A,]2 [F,A,]2 [C,C]2 [C,C]2 | %6
w: ~ ~ ~ ~|~ ~|~ ~ ~ ~|
 [F,C]2 [F,A,]2 [F,B,][F,A,][F,C][F,C] | [G,C] [G,C]3 [G,E]2 [G,D]2 | [C,C]6 || [C,C][C,C] | %10
w: ~ ~ ~ ~ ~ ~|~ ~ ~ ~|~|~ ~|
 [C,C][C,B,][C,B,][C,B,] [C,B,]2 [C,B,]2 | [F,A,]2 [F,B,]2 [F,A,]2 [F,A,]2 | %12
w: ~ ~ ~ go- ing there|~ some day, ~|
 [C,B,]2 [C,B,][C,B,] [C,B,]2 [C,C]2 | [F,C]2 [F,B,]2 [F,A,]2 [F,A,][F,A,] | %14
w: ~ go- ing there, ~|~ some day, ~ ~|
 [F,A,] [F,A,]3 [C,C]3 [C,C] | (CF) [F,F]2 [F,F]2 [B,,D]2 | (C4 B,4) | [F,A,]6 |] %18
w: ~ ~ ~ ~|~ * some day *|||
V:4
 x2 | x8 | x8 | x8 | x8 | x8 | x8 | x8 | x6 || x2 | x8 | x8 | x8 | x8 | x8 | F,2 x6 | C,8 | x6 |] %18

